packages/foundations/assets/icons/functional/images/business & payment/sepa_24_filled.svg

<svg xmlns="http://www.w3.org/2000/svg" width="20" height="20" fill="none"><path fill="#1A1C1F" fill-rule="evenodd" d="M5.567 2.052c-.537.115-1.096.549-1.342 1.04-.233.466-.229.4-.218 3.508.01 2.74.011 2.786.08 2.967.141.369.257.551.509.802.296.294.524.433.87.529.246.068.302.069 4.533.068 4.738 0 4.425.014 4.899-.22.455-.225.841-.696 1.023-1.246.055-.169.061-.383.071-2.817.008-1.682-.001-2.726-.022-2.889a1.97 1.97 0 0 0-.602-1.218c-.248-.248-.688-.482-1.016-.541-.133-.023-1.562-.034-4.383-.032-3.447.002-4.224.011-4.402.049M11 8v1H6V7h5zm-6.765 5.036a1.24 1.24 0 0 0-.863.659c-.07.151-.09.25-.1.496-.026.69.203.996 1.297 1.736.644.435.787.655.583.898-.197.234-.745.23-1.239-.009-.37-.18-.735-.04-.8.307-.055.295.123.509.568.68 1.277.493 2.462-.011 2.543-1.08.049-.648-.201-1.018-1.092-1.624-.756-.514-.884-.648-.859-.903.007-.078.035-.124.094-.155.124-.067.564-.029.864.074.297.102.449.107.594.019a.492.492 0 0 0 .03-.826c-.341-.232-1.139-.366-1.62-.272m2.699.022a.6.6 0 0 0-.192.172l-.075.113v4.314l.075.113c.154.23.166.232 1.514.222 1.159-.008 1.209-.011 1.298-.077.162-.122.224-.234.227-.412s-.059-.292-.227-.418c-.087-.064-.143-.069-.99-.078l-.897-.01V15.9h.636c.519 0 .658-.01.751-.054a.48.48 0 0 0 .27-.409.44.44 0 0 0-.259-.462c-.136-.07-.188-.075-.772-.075h-.626V14l.825-.001c.792 0 .83-.003.955-.075a.6.6 0 0 0 .191-.19.486.486 0 0 0-.191-.658c-.128-.073-.152-.075-1.264-.075-1.013-.001-1.145.005-1.249.057m3.581-.011a.58.58 0 0 0-.298.362c-.011.059-.015 1.04-.01 2.18.009 2.034.011 2.075.078 2.165.235.314.63.32.84.013.072-.107.075-.136.075-.889V16.1h.392c.683-.001 1.028-.097 1.325-.371.285-.262.416-.635.416-1.179 0-.845-.357-1.353-1.057-1.501-.306-.065-1.613-.066-1.761-.002m4.315.022a.6.6 0 0 0-.172.16 78 78 0 0 0-.822 2.117c-.531 1.399-.769 2.069-.769 2.159a.48.48 0 0 0 .629.467c.206-.062.284-.181.514-.789l.215-.566h1.151l.187.552c.211.623.252.699.415.776a.495.495 0 0 0 .713-.376c.014-.106-.11-.511-.69-2.249-.681-2.044-.711-2.124-.822-2.209a.51.51 0 0 0-.549-.042m-2.698.969c.147.051.201.193.201.529 0 .318-.051.443-.204.496-.058.02-.291.037-.517.037H11.2V14h.412c.226 0 .46.017.52.038m3.084 1.493c.021.065.01.069-.194.069h-.216l.098-.255c.054-.14.108-.271.12-.29q.028-.042.192.476"/></svg>

<svg width="20" height="20" viewBox="0 0 20 20" fill="none" xmlns="http://www.w3.org/2000/svg"><path d="M5.567 2.052 C 5.030 2.167,4.471 2.601,4.225 3.092 C 3.992 3.558,3.996 3.492,4.007 6.600 C 4.017 9.340,4.018 9.386,4.087 9.567 C 4.228 9.936,4.344 10.118,4.596 10.369 C 4.892 10.663,5.120 10.802,5.466 10.898 C 5.712 10.966,5.768 10.967,9.999 10.966 C 14.737 10.966,14.424 10.980,14.898 10.746 C 15.353 10.521,15.739 10.050,15.921 9.500 C 15.976 9.331,15.982 9.117,15.992 6.683 C 16.000 5.001,15.991 3.957,15.970 3.794 C 15.903 3.294,15.722 2.929,15.368 2.576 C 15.120 2.328,14.680 2.094,14.352 2.035 C 14.219 2.012,12.790 2.001,9.969 2.003 C 6.522 2.005,5.745 2.014,5.567 2.052 M11.000 8.000 L 11.000 9.000 8.500 9.000 L 6.000 9.000 6.000 8.000 L 6.000 7.000 8.500 7.000 L 11.000 7.000 11.000 8.000 M4.235 13.036 C 3.866 13.109,3.524 13.369,3.372 13.695 C 3.302 13.846,3.282 13.945,3.272 14.191 C 3.246 14.881,3.475 15.187,4.569 15.927 C 5.213 16.362,5.356 16.582,5.152 16.825 C 4.955 17.059,4.407 17.055,3.913 16.816 C 3.543 16.636,3.178 16.776,3.113 17.123 C 3.058 17.418,3.236 17.632,3.681 17.803 C 4.958 18.296,6.143 17.792,6.224 16.723 C 6.273 16.075,6.023 15.705,5.132 15.099 C 4.376 14.585,4.248 14.451,4.273 14.196 C 4.280 14.118,4.308 14.072,4.367 14.041 C 4.491 13.974,4.931 14.012,5.231 14.115 C 5.528 14.217,5.680 14.222,5.825 14.134 C 6.132 13.946,6.148 13.507,5.855 13.308 C 5.514 13.076,4.716 12.942,4.235 13.036 M6.934 13.058 C 6.870 13.090,6.784 13.168,6.742 13.230 L 6.667 13.343 6.667 15.500 L 6.667 17.657 6.742 17.770 C 6.896 18.000,6.908 18.002,8.256 17.992 C 9.415 17.984,9.465 17.981,9.554 17.915 C 9.716 17.793,9.778 17.681,9.781 17.503 C 9.784 17.325,9.722 17.211,9.554 17.085 C 9.467 17.021,9.411 17.016,8.564 17.007 L 7.667 16.997 7.667 16.448 L 7.667 15.900 8.303 15.900 C 8.822 15.900,8.961 15.890,9.054 15.846 C 9.209 15.772,9.308 15.623,9.324 15.437 C 9.342 15.228,9.255 15.072,9.065 14.975 C 8.929 14.905,8.877 14.900,8.293 14.900 L 7.667 14.900 7.667 14.450 L 7.667 14.000 8.492 13.999 C 9.284 13.999,9.322 13.996,9.447 13.924 C 9.518 13.884,9.604 13.798,9.638 13.734 C 9.765 13.496,9.682 13.210,9.447 13.076 C 9.319 13.003,9.295 13.001,8.183 13.001 C 7.170 13.000,7.038 13.006,6.934 13.058 M10.515 13.047 C 10.381 13.105,10.241 13.276,10.217 13.409 C 10.206 13.468,10.202 14.449,10.207 15.589 C 10.216 17.623,10.218 17.664,10.285 17.754 C 10.520 18.068,10.915 18.074,11.125 17.767 C 11.197 17.660,11.200 17.631,11.200 16.878 L 11.200 16.100 11.592 16.100 C 12.275 16.099,12.620 16.003,12.917 15.729 C 13.202 15.467,13.333 15.094,13.333 14.550 C 13.333 13.705,12.976 13.197,12.276 13.049 C 11.970 12.984,10.663 12.983,10.515 13.047 M14.830 13.069 C 14.764 13.109,14.686 13.181,14.658 13.229 C 14.629 13.278,14.259 14.230,13.836 15.346 C 13.305 16.745,13.067 17.415,13.067 17.505 C 13.067 17.841,13.374 18.068,13.696 17.972 C 13.902 17.910,13.980 17.791,14.210 17.183 L 14.425 16.617 15.000 16.617 L 15.576 16.617 15.763 17.169 C 15.974 17.792,16.015 17.868,16.178 17.945 C 16.491 18.094,16.845 17.906,16.891 17.569 C 16.905 17.463,16.781 17.058,16.201 15.320 C 15.520 13.276,15.490 13.196,15.379 13.111 C 15.220 12.990,14.992 12.973,14.830 13.069 M12.132 14.038 C 12.279 14.089,12.333 14.231,12.333 14.567 C 12.333 14.885,12.282 15.010,12.129 15.063 C 12.071 15.083,11.838 15.100,11.612 15.100 L 11.200 15.100 11.200 14.550 L 11.200 14.000 11.612 14.000 C 11.838 14.000,12.072 14.017,12.132 14.038 M15.216 15.531 C 15.237 15.596,15.226 15.600,15.022 15.600 L 14.806 15.600 14.904 15.345 C 14.958 15.205,15.012 15.074,15.024 15.055 C 15.042 15.026,15.107 15.187,15.216 15.531 " fill="#1A1C1F" stroke="none" fill-rule="evenodd"></path></svg>
